build/communication/VKSolid.svg

<svg xmlns="http://www.w3.org/2000/svg" fill="none" viewBox="0 0 24 24" focusable="false"><path d="M0 0H24V24H0z"/><path fill="#74767B" d="M12.8038 18.2317C6.65392 18.2317 3.14614 14.0156 3 7L6.08056 7C6.18174 12.1493 8.45278 14.3304 10.2516 14.7801L10.2516 7L13.1524 7L13.1524 11.4409C14.9288 11.2498 16.7949 9.22611 17.4245 7L20.3253 7C19.8419 9.74327 17.8181 11.767 16.379 12.599C17.8181 13.2736 20.123 15.0387 21 18.2317L17.8069 18.2317C17.1211 16.0956 15.4123 14.4428 13.1524 14.218L13.1524 18.2317L12.8038 18.2317Z"/></svg>

<svg xmlns="http://www.w3.org/2000/svg" fill="none" viewBox="0 0 24 24" focusable="false"><path fill="none" d="M0 0h24v24H0z"/><path fill="#74767B" d="M12.8 18.23C6.65 18.23 3.14 14.01 3 7h3.08c.1 5.14 2.37 7.33 4.17 7.78V7h2.9v4.44c1.77-.2 3.64-2.22 4.27-4.44h2.9c-.48 2.74-2.51 4.76-3.95 5.59 1.44.68 3.75 2.44 4.63 5.64h-3.2c-.68-2.14-2.39-3.79-4.65-4.02v4.02z"/></svg>
